icons/media/shuffle-24.svg

<svg width="24" height="24" viewBox="0 0 24 24" fill="none" xmlns="http://www.w3.org/2000/svg">
<path d="M17.9435 3.3952C17.7156 3.22806 17.4131 3.20324 17.161 3.331C16.9089 3.45875 16.75 3.71738 16.75 4V6L15.4464 5.99997C14.5384 5.99961 13.9108 5.99937 13.3369 6.18863C12.8308 6.3555 12.3661 6.62831 11.9738 6.98887C11.5288 7.39781 11.2232 7.94589 10.7809 8.73895L9.68023 10.7111L8.71906 8.98896C8.27683 8.1959 7.97121 7.64781 7.52622 7.23887C7.13387 6.87831 6.66918 6.6055 6.16312 6.43863C5.58916 6.24937 4.96162 6.24961 4.0536 6.24997L2.75 6.25C2.33579 6.25 2 6.58579 2 7C2 7.41422 2.33579 7.75 2.75 7.75H3.93203C5.00926 7.75 5.37736 7.75897 5.69338 7.86318C5.99702 7.9633 6.27583 8.12699 6.51124 8.34332C6.75625 8.56849 6.94348 8.88554 7.46848 9.82617L8.82132 12.25L7.46848 14.6738C6.94348 15.6145 6.75625 15.9315 6.51124 16.1567C6.27583 16.373 5.99702 16.5367 5.69338 16.6368C5.37736 16.741 5.00926 16.75 3.93203 16.75H2.75C2.33579 16.75 2 17.0858 2 17.5C2 17.9142 2.33579 18.25 2.75 18.25L4.0536 18.25C4.96161 18.2504 5.58917 18.2506 6.16312 18.0614C6.66918 17.8945 7.13387 17.6217 7.52622 17.2611C7.97121 16.8522 8.27683 16.3041 8.71906 15.5111L9.68023 13.7889L10.7809 15.7611C11.2232 16.5541 11.5288 17.1022 11.9738 17.5111C12.3661 17.8717 12.8308 18.1445 13.3369 18.3114C13.9108 18.5006 14.5384 18.5004 15.4464 18.5L16.75 18.5V20.5C16.75 20.7826 16.9089 21.0413 17.161 21.169C17.4131 21.2968 17.7156 21.2719 17.9435 21.1048L21.6935 18.3548C21.8862 18.2135 22 17.9889 22 17.75C22 17.5111 21.8862 17.2865 21.6935 17.1452L17.9435 14.3952C17.7156 14.2281 17.4131 14.2032 17.161 14.331C16.9089 14.4587 16.75 14.7174 16.75 15V17H15.568C14.4907 17 14.1226 16.991 13.8066 16.8868C13.503 16.7867 13.2242 16.623 12.9888 16.4067C12.7438 16.1815 12.5565 15.8645 12.0315 14.9238L10.5391 12.25L12.0315 9.57617C12.5565 8.63554 12.7438 8.31849 12.9888 8.09332C13.2242 7.87699 13.503 7.7133 13.8066 7.61318C14.1226 7.50897 14.4907 7.5 15.568 7.5H16.75V9.5C16.75 9.78263 16.9089 10.0413 17.161 10.169C17.4131 10.2968 17.7156 10.2719 17.9435 10.1048L21.6935 7.35481C21.8862 7.21353 22 6.98891 22 6.75C22 6.5111 21.8862 6.28648 21.6935 6.1452L17.9435 3.3952Z" fill="black"/>
</svg>

<svg xmlns="http://www.w3.org/2000/svg" width="24" height="24"><path d="M17.944 3.395A.75.75 0 0016.75 4v2h-1.304c-.908 0-1.535 0-2.11.189a3.75 3.75 0 00-1.362.8c-.445.409-.75.957-1.193 1.75l-1.1 1.972-.962-1.722c-.442-.793-.748-1.341-1.193-1.75a3.75 3.75 0 00-1.363-.8c-.574-.19-1.201-.19-2.11-.189H2.75a.75.75 0 000 1.5h1.182c1.077 0 1.445.009 1.761.113.304.1.583.264.818.48.245.225.432.543.957 1.483l1.353 2.424-1.353 2.424c-.525.94-.712 1.258-.957 1.483a2.25 2.25 0 01-.818.48c-.316.104-.684.113-1.761.113H2.75a.75.75 0 000 1.5h1.304c.908 0 1.535 0 2.11-.189a3.75 3.75 0 001.362-.8c.445-.409.75-.957 1.193-1.75l.961-1.722 1.1 1.972c.443.793.749 1.341 1.194 1.75.392.36.857.634 1.363.8.574.19 1.201.19 2.11.189h1.303v2a.75.75 0 001.194.605l3.75-2.75a.75.75 0 000-1.21l-3.75-2.75A.75.75 0 0016.75 15v2h-1.182c-1.077 0-1.445-.009-1.761-.113a2.25 2.25 0 01-.818-.48c-.245-.226-.433-.543-.958-1.483L10.54 12.25l1.492-2.674c.525-.94.713-1.258.958-1.483a2.25 2.25 0 01.818-.48c.316-.104.684-.113 1.761-.113h1.182v2a.75.75 0 001.194.605l3.75-2.75a.75.75 0 000-1.21l-3.75-2.75z"/></svg>
